X:64
T:Polska efter Petter Duva 
R:sl-polska
A:Sm{\aa}land
Z:id:hn-sp-64
Z:Verkelb\"ack
M:3/4
L:1/16
K:D
d2c2 d2f2 A4 | G2F2 E2EG F2D2 | d2c2 d2f2 A4 | G2F2 E2EF D4 :|
|: f2d2 d2f2 d2f2 | g2e2 e2g2 e2g2 | f2d2 d2f2 d2f2 | g2e2 e2g2 e2g2 |
f3a g2f2 e2d2 | c2Bc d8 :|

